icon-svg/bmw-i.svg

<svg xmlns="http://www.w3.org/2000/svg" fill="#44739e" viewBox="0 0 24 24"><path d="M16.838 8.077 15.8 9.851h2.074a1.073 1.073 0 0 0 .928-.533l.724-1.241Zm-1.768 3.032L12.043 16.3h1.765a1.612 1.612 0 0 0 1.393-.8l2.871-4.924H16a1.074 1.074 0 0 0-.93.533m-2.024-4.568h-2.982a2.95 2.95 0 0 0-2.549 1.464L2 17.459h11.936A2.953 2.953 0 0 0 16.486 16L22 6.541Zm3.29 9.366a2.789 2.789 0 0 1-2.4 1.379H6.779l6.166-10.572H21.7Z"/></svg>

<?xml version="1.0" encoding="UTF-8"?>
<svg width="24px" fill="#44739e" height="24px" viewBox="0 0 24 24" version="1.1" xmlns="http://www.w3.org/2000/svg" xmlns:xlink="http://www.w3.org/1999/xlink">
            <path d="M 16.838,8.077 15.8,9.851 h 2.074 A 1.073,1.073 0 0 0 18.802,9.318 L 19.526,8.077 Z M 15.07,11.109 12.043,16.3 h 1.765 a 1.612,1.612 0 0 0 1.393,-0.8 l 2.871,-4.924 H 16 a 1.074,1.074 0 0 0 -0.93,0.533 z M 13.046,6.541 H 10.064 A 2.95,2.95 0 0 0 7.515,8.005 L 2,17.459 H 13.936 A 2.953,2.953 0 0 0 16.486,16 L 22,6.541 Z m 3.29,9.366 a 2.789,2.789 0 0 1 -2.4,1.379 H 6.779 L 12.945,6.714 H 21.7 Z"/>

</svg>
